sites/gf-cmbrb/images/icon.svg

<svg width="120" height="120" viewBox="0 0 120 120" fill="none" xmlns="http://www.w3.org/2000/svg">
<mask id="mask0_351_338" style="mask-type:alpha" maskUnits="userSpaceOnUse" x="20" y="20" width="80" height="80">
<rect x="20" y="20" width="80" height="80" fill="#C4C4C4"/>
</mask>
<g mask="url(#mask0_351_338)">
<path d="M73.8451 64.0955L37.1851 50.5405V30.8242L73.8451 44.3792V64.0955Z" fill="white"/>
<path d="M74.2958 64.7417L36.7354 50.8546V30.1785L74.2958 44.0656V64.7417ZM37.6356 50.2269L73.3955 63.4496V44.6932L37.6356 31.4706V50.2269Z" fill="#ECEDED"/>
<path d="M60.0008 62.5707V90.7029L20 75.7547V47.6226L47.691 57.9713L60.0008 62.5707Z" fill="url(#paint0_linear_351_338)"/>
<path opacity="0.66" d="M60.0007 62.5709V81.5199L47.6909 76.9677V57.9714L60.0007 62.5709Z" fill="url(#paint1_linear_351_338)"/>
<path d="M47.6909 77.074L100 57.7327V29.6L47.6909 48.9413V77.074Z" fill="url(#paint2_linear_351_338)"/>
</g>
<defs>
<linearGradient id="paint0_linear_351_338" x1="20" y1="69.1627" x2="60.0008" y2="69.1627" gradientUnits="userSpaceOnUse">
<stop stop-color="#70B97F"/>
<stop offset="0.5" stop-color="#009036"/>
<stop offset="1" stop-color="#008135"/>
</linearGradient>
<linearGradient id="paint1_linear_351_338" x1="47.6909" y1="69.7456" x2="60.0007" y2="69.7456" gradientUnits="userSpaceOnUse">
<stop stop-color="#8377B1"/>
<stop offset="0.5" stop-color="#675BA0"/>
<stop offset="1" stop-color="#41378A"/>
</linearGradient>
<linearGradient id="paint2_linear_351_338" x1="47.6909" y1="53.337" x2="100" y2="53.337" gradientUnits="userSpaceOnUse">
<stop stop-color="#4BC1EB"/>
<stop offset="0.5" stop-color="#009FE1"/>
<stop offset="1" stop-color="#008CD0"/>
</linearGradient>
</defs>
</svg>

<svg width="120" height="120" fill="none" xmlns="http://www.w3.org/2000/svg"><mask id="a" style="mask-type:alpha" maskUnits="userSpaceOnUse" x="20" y="20" width="80" height="80"><path fill="#C4C4C4" d="M20 20h80v80H20z"/></mask><g mask="url(#a)"><path d="M73.845 64.096 37.185 50.54V30.825l36.66 13.555v19.717Z" fill="#fff"/><path d="m74.296 64.742-37.56-13.887V30.179l37.56 13.887v20.676Zm-36.66-14.515 35.76 13.223V44.693l-35.76-13.222v18.756Z" fill="#ECEDED"/><path d="M60 62.57v28.133L20 75.755V47.623L47.691 57.97l12.31 4.6Z" fill="url(#b)"/><path opacity=".66" d="M60 62.57v18.95l-12.31-4.552V57.97L60 62.57Z" fill="url(#c)"/><path d="M47.69 77.074 100 57.733V29.6L47.69 48.941v28.133Z" fill="url(#d)"/></g><defs><linearGradient id="b" x1="20" y1="69.163" x2="60.001" y2="69.163" gradientUnits="userSpaceOnUse"><stop stop-color="#70B97F"/><stop offset=".5" stop-color="#009036"/><stop offset="1" stop-color="#008135"/></linearGradient><linearGradient id="c" x1="47.691" y1="69.746" x2="60.001" y2="69.746" gradientUnits="userSpaceOnUse"><stop stop-color="#8377B1"/><stop offset=".5" stop-color="#675BA0"/><stop offset="1" stop-color="#41378A"/></linearGradient><linearGradient id="d" x1="47.691" y1="53.337" x2="100" y2="53.337" gradientUnits="userSpaceOnUse"><stop stop-color="#4BC1EB"/><stop offset=".5" stop-color="#009FE1"/><stop offset="1" stop-color="#008CD0"/></linearGradient></defs></svg>
